packages/kaspersky-hexa-ui-icons/src/iconsSVGs/28x20/FlagCn.svg

<svg width="28" height="20" viewBox="0 0 28 20" fill="none" xmlns="http://www.w3.org/2000/svg">
<g clip-path="url(#clip0_5138_578)">
<rect width="28" height="20" rx="2" fill="white"/>
<mask id="mask0_5138_578" style="mask-type:luminance" maskUnits="userSpaceOnUse" x="0" y="0" width="28" height="20">
<rect width="28" height="20" rx="2" fill="white"/>
</mask>
<g mask="url(#mask0_5138_578)">
<rect width="28" height="20" fill="#F1361D"/>
<path fill-rule="evenodd" clip-rule="evenodd" d="M10.0726 3.10076L11.0411 3.26586L11.7674 3.92736L11.9325 2.95891L12.594 2.23258L11.6256 2.06747L10.8992 1.40598L10.7341 2.37442L10.0726 3.10076ZM12.6667 6.48803L13.5059 5.97728L14.488 6L13.9773 5.16079L14 4.17863L13.1608 4.68938L12.1786 4.66667L12.6894 5.50588L12.6667 6.48803ZM11.5283 11.9709L10.7074 12.5106L10.6958 11.5282L10.1561 10.7074L11.1384 10.6958L11.9593 10.1561L11.9709 11.1384L12.5106 11.9593L11.5283 11.9709ZM12.2411 9.43144L13.2176 9.32321L14.0981 9.75887L13.9899 8.78243L14.4255 7.9019L13.4491 8.01013L12.5686 7.57446L12.6768 8.5509L12.2411 9.43144Z" fill="#FFDC42"/>
<path fill-rule="evenodd" clip-rule="evenodd" d="M6.66667 8.22666L4.31553 9.90272L5.18302 7.14872L2.86245 5.43059L5.74973 5.40459L6.66667 2.66666L7.58362 5.40459L10.4709 5.43059L8.15032 7.14872L9.01781 9.90272L6.66667 8.22666Z" fill="#FFDC42"/>
</g>
</g>
<defs>
<clipPath id="clip0_5138_578">
<rect width="28" height="20" fill="white"/>
</clipPath>
</defs>
</svg>

<svg xmlns="http://www.w3.org/2000/svg" width="28" height="20" fill="none" viewBox="0 0 28 20"><g clip-path="url(#a)"><rect width="28" height="20" fill="#fff" rx="2"/><mask id="b" width="28" height="20" x="0" y="0" maskUnits="userSpaceOnUse" style="mask-type:luminance"><rect width="28" height="20" fill="#fff" rx="2"/></mask><g mask="url(#b)"><path fill="#f1361d" d="M0 0h28v20H0z"/><path fill="#ffdc42" fill-rule="evenodd" d="m10.073 3.101.969.165.726.662.165-.968.662-.726-.968-.165-.726-.661-.165.968zm2.594 3.387.839-.511.982.023-.511-.839.023-.982-.839.511-.982-.023.511.839zm-1.138 5.483-.821.54-.012-.982-.54-.821.982-.012.821-.54.012.982.54.821zm.713-2.539.977-.108.881.436-.108-.976.436-.88-.976.108-.88-.436.108.976zM6.667 8.227 4.316 9.903l.868-2.754-2.32-1.718 2.887-.026.917-2.738.917 2.738 2.887.026-2.321 1.718.868 2.754z" clip-rule="evenodd"/></g></g><defs><clipPath id="a"><path fill="#fff" d="M0 0h28v20H0z"/></clipPath></defs></svg>
